X: 482
T: Sleepy Maggy
R: reel
B: Robert Bremner "A Collection of Scots Reels or Country Dances" 1757 p.48 #2
S: http://imslp.org/wiki/A_Collection_of_Scots_Reels_or_Country_Dances_(Bremner,_Robert)
Z: 2013 John Chambers <jc:trillian.mit.edu>
M: C
L: 1/8
K: Bm
% - - - - - - - - - - - - - - - - - - - - - - - - -
V: 1
|:\
Tf2Bb fBde | Tf2Bb eAce |\
Tf2Bb fBde | (f/e/f/g/ a)f eAce :|
|:\
fBdB fBde | fBdB eAce |\
fBdB fBde | (f/e/f/g/ a)f eAce :|
% - - - - - - - - - - - - - - - - - - - - - - - - -
V: 2 clef=bass middle=d
|:\
b2b2 b2b2 | b2b2 a2a2 |\
b2b2 b2b2 | b2b2 a2a2 :|
|:\
b2b2 b2b2 | b2b2 a2a2 |\
b2b2 b2b2 | b2b2 a2a2 :|
% - - - - - - - - - - - - - - - - - - - - - - - - -

%%sep 1 1 500
%%sep 1 1 500
